X:1
T:Hiram Hubbard
M:4/4
L:1/4
K:E
 z2 z E/2E/2| G/2 G/2- G3| FE/2-C/2 E3/2- C/2| B,3 G,| B, C EG/2-F/2|\
 E4-| E2 z B,/2B,/2| E/2 E/2- E G B|B/2-c/2 B3-|
M:2/4
 B E|
M:4/4
 B4-| B G F/2 E3/2| G z2 E| B4-| B E BG/2-F/2| E3/2- C/2 B,2-| B, G,/2 G,/2 B, E|\
 G2- G/2-F/4-E/4 F| E3 z|
